!!!!SEGMENT: pl-kk--kk-i-6--037-004_palestrina-giovanni-pierluigi-da--missa-inviolata-sanctus.krn
!!!id: 16xx:1019
!!!COM: Palestrina, Giovanni Pierluigi da
!!!COM-rism: pe1904
!!!CDT: ~1525-1594/02/02
!!!CNT: Italian
!!!OTL: Missa Inviolata – Sanctus
!!!PDT:
!!!SMS-siglum: PL-Kk
!!!SMS-shelfmark: Kk.I.6
!!!NIFC-rismID: 1001136448
!!!URL-scan: http://repozytorium.nifc.pl/skany/pl-kk-nut--i-6
!!!ONB-nifc: UWAGA: C (skan 0050, s. 88-99), T (skan 0161-0162, s. 120-131), B (skan 0271, s. 121-126) Części Mszy: 1. Kyrie, 2. Et in terra, 3. Patrem, 4. Sanctus, 5. Agnus Dei
!!!SMS-variant:
!!!SMS-altvar:
**kern	**text	**kern	**text	**kern	**text
*part3	*part3	*part2	*part2	*part1	*part1
*staff3	*staff3	*staff2	*staff2	*staff1	*staff1
*I"[Baſsus.]	*	*I"[Tenor.]	*	*I"[Cantus.]	*
*I'[B]	*	*I'[T]	*	*I'[C]	*
*clefF4	*	*clefC4	*	*clefC1	*
*k[b-]	*	*k[b-]	*	*k[b-]	*
*M2/1	*	*M2/1	*	*M2/1	*
*met(C|)	*	*met(C|)	*	*met(C|)	*
=1-	=1-	=1-	=1-	=1-	=1-
!LO:TX:t=P:problem:przed kluczem inicjał S	!	!LO:TX:t=P:problem:przed kluczem inicjał S	!	!LO:TX:t=P:problem:przed kluczem inicjał S	!
00r	.	00r	.	0f	San-
=2-	=2-	=2-	=2-	=2-	=2-
.	.	.	.	1f	-ctus
.	.	.	.	1f	.
=3-	=3-	=3-	=3-	=3-	=3-
*	*	*	*	*	*ij
!	!	!LO:TX:t=P:problem:kreska pseudotaktowa	!	!	!
0r	.	1r	.	0g	San
*	*	*lig	*	*	*
.	.	1C	San-	.	.
=4-	=4-	=4-	=4-	=4-	=4-
!LO:TX:t=P:problem:kreska pseudotaktowa	!	!	!	!	!
*	*	*col	*	*	*
1r	.	2.F/	.	0a	.
*	*	*Xlig	*	*	*
!	!	!LO:TX:t=P:problem:kreska pseudotaktowa	!	!	!
.	.	4G/	.	.	.
*lig	*	*Xcol	*	*	*
1FF	SAn-	4A/	.	.	.
.	.	4B-\	.	.	.
.	.	4c\	.	.	.
.	.	4A/	.	.	.
=5-	=5-	=5-	=5-	=5-	=5-
*col	*	*	*	*	*
2.BB-/	.	1.d	.	1b-	.
*Xlig	*	*	*	*	*
!LO:TX:t=P:problem:kreska pseudotaktowa	!	!	!	!	!
4C/	.	.	.	.	.
*Xcol	*	*	*	*	*
!LO:TX:t=P:problem:4\right:global	!	!	!	!	!
4D\	.	.	.	1a	ctus
4E\	.	.	.	.	.
*	*	*2\right	*	*	*
!	!	!LO:TX:t=P:problem:kreska pseudotaktowa	!	!	!
1F\	.	2c\	-ctus	.	.
=6-	=6-	=6-	=6-	=6-	=6-
.	.	1r	.	0g	San-
4E\	.	.	.	.	.
!LO:TX:t=P:problem:kreska pseudotaktowa	!	!	!	!	!
4D\	.	.	.	.	.
*	*	*lig	*	*	*
*	*	*col	*ij	*	*
1E	.	1C	San-	.	.
=7-	=7-	=7-	=7-	=7-	=7-
!LO:TX:t=P:problem:kreska pseudotaktowa	!	!	!	!	!
0F,<	-ctus	2.F/	.	0a	.
*	*	*Xlig	*	*	*
!	!	!LO:TX:t=P:problem:kreska pseudotaktowa	!	!	!
.	.	4G/	.	.	.
*	*	*Xcol	*	*	*
.	.	4A/	.	.	.
.	.	4B-\	.	.	.
.	.	1c\	.	.	.
=8-	=8-	=8-	=8-	=8-	=8-
0G	San-	.	.	0g	.
.	.	4B-\	.	.	.
!	!	!LO:TX:t=P:problem:kreska pseudotaktowa	!	!	!
.	.	4A\	.	.	.
.	.	1B-	.	.	.
=9-	=9-	=9-	=9-	=9-	=9-
*2\right	*	*	*	*	*
2A\	.	2c\	.	00f	-ctus
*	*	*	*	*	*Xij
!	!	!LO:TX:t=P:problem:kreska pseudotaktowa	!	!	!
!	!	!LO:SIC:v:t=custos c	!	!	!
1B-	.	2d\	.	.	.
!	!	!LO:PB:g=original	!	!	!
.	.	1c	.	.	.
2A\	.	.	.	.	.
=10-	=10-	=10-	=10-	=10-	=10-
1B-	.	0d	.	.	.
!LO:TX:t=P:problem:kreska pseudotaktowa	!	!	!	!	!
1BB-	-ctus	.	.	.	.
=11-	=11-	=11-	=11-	=11-	=11-
!	!	!LO:TX:t=P:problem:kreska pseudotaktowa	!	!	!
1r	.	0c	-ctus	0g	san-
*lig	*ij	*	*Xij	*	*
1C	San-	.	.	.	.
=12-	=12-	=12-	=12-	=12-	=12-
*col	*	*	*	*	*
2.F\	.	0r	.	0.f	-ctus
*Xlig	*	*	*	*	*
!LO:SIC:v:t=custos A	!	!	!	!	!
4G\	-ctus	.	.	.	.
*Xcol	*	*	*	*	*
!LO:LB:g=original	!	!	!	!	!
2A\	San-	.	.	.	.
1B-\	.	.	.	.	.
=13-	=13-	=13-	=13-	=13-	=13-
*	*	*lig	*	*	*
.	.	1F	San-	.	.
2A\	.	.	.	.	.
*	*	*col	*	*	*
0G	.	2.B-\	.	0g	.
*	*	*Xlig	*	*	*
!	!	!LO:TX:t=P:problem:kreska pseudotaktowa	!	!	!
.	.	4c\	.	.	.
*	*	*Xcol	*	*	*
=14-	=14-	=14-	=14-	=14-	=14-
.	.	2d\	.	.	.
.	.	2e\	.	.	.
!LO:TX:t=P:problem:kreska pseudotaktowa	!	!LO:TX:t=P:problem:kreska pseudotaktowa	!	!	!
1F	-ctus	1f,<	-ctus	0.a	.
*	*Xij	*	*	*	*
=15-	=15-	=15-	=15-	=15-	=15-
2r	.	2.c\	Do-	.	.
2.F\	Do-	.	.	.	.
.	.	4c\	-mi-	.	.
.	.	2c\	-nus	.	.
4F\	-mi-	.	.	.	.
2F\	-nus	2d\	De-	.	.
=16-	=16-	=16-	=16-	=16-	=16-
!	!	!	!	!LO:LB:g=original	!
2G\	De-	2B-\	-us	00r	.
!LO:TX:t=P:problem:kreska pseudotaktowa	!	!	!	!	!
2E\	-us	1c	sab-	.	.
2F\	Sab-	.	.	.	.
1G\	.	2B-\	.	.	.
=17-	=17-	=17-	=17-	=17-	=17-
*	*	*lig	*	*	*
.	.	1A	.	.	.
1F	.	.	.	.	.
.	.	1G	.	.	.
2E\	-ba-	.	.	.	.
*	*	*Xlig	*	*	*
=18-	=18-	=18-	=18-	=18-	=18-
!LO:TX:t=P:problem:kreska pseudotaktowa	!	!	!	!	!
*	*	*lig	*	*	*
1F	-oth.	1A	-ba-	2r	.
.	.	.	.	2.f/	Do-
1r	.	1B-	.	.	.
.	.	.	.	4f/	-mi-
.	.	.	.	2f/	-nus
*	*	*Xlig	*	*	*
=19-	=19-	=19-	=19-	=19-	=19-
!	!	!LO:TX:t=P:problem:kreska pseudotaktowa	!	!	!
2r	.	1G	-oth	2g/	De-
*	*ij	*	*	*	*
!LO:TX:t=P:problem:kreska pseudotaktowa	!	!	!	!	!
2C/	Do-	.	.	2e/	-us
!	!	!LO:LB:g=original	!	!	!
2D/	-mi-	1r	.	2f/	sab-
*	*	*	*	*lig	*
2E\	-nus	.	.	1g\	.
=20-	=20-	=20-	=20-	=20-	=20-
*lig	*	*	*	*	*
1F	De-	2r	.	.	.
*	*	*	*ij	*	*
.	.	2.c\	Do-	1f	.
1C	-us	.	.	.	.
.	.	4c\	-mi-	.	.
*Xlig	*	*	*	*Xlig	*
!	!	!LO:TX:t=P:problem:kreska pseudotaktowa	!	!	!
.	.	2c\	-nus	2e/	-ba-
=21-	=21-	=21-	=21-	=21-	=21-
!LO:TX:t=P:problem:kreska pseudotaktowa	!	!	!	!	!
1BB-	Sab-	2d\	De-	0f	-oth
.	.	2B-\	-us	.	.
!LO:SIC:v:t=custos G	!	!	!	!	!
1F	.	2c\	sab-	.	.
.	.	1d\	.	.	.
=22-	=22-	=22-	=22-	=22-	=22-
!LO:LB:g=original	!	!	!	!	!
2G\	.	.	.	2re	.
*	*	*	*	*	*ij
2C/	.	1c	.	2.g/	Do-
1G	-ba-	.	.	.	.
.	.	.	.	4g/	-mi-
.	.	2B-\	-ba-	2g/	-nus
=23-	=23-	=23-	=23-	=23-	=23-
*	*	*	*	*2\right	*
!LO:TX:t=P:problem:kreska pseudotaktowa	!	!LO:TX:t=P:problem:kreska pseudotaktowa	!	!	!
1F	-oth.	1c	-oth	2a\	De-
*	*Xij	*	*	*	*
.	.	.	.	2f/	-us
0r	.	2r	.	2g/	sab-
*	*	*	*	*lig	*
.	.	2F/	Do-	1a\	.
=24-	=24-	=24-	=24-	=24-	=24-
.	.	2F/	-mi-	.	.
.	.	2G/	-nus	1g	.
2r	.	1A	De-	.	.
*	*	*	*	*Xlig	*
2D/	Sab-	.	.	2f/	-ba-
=25-	=25-	=25-	=25-	=25-	=25-
!	!	!	!	!LO:SIC:v:t=custos a	!
2E-X\	-ba-	2G/	-us	0g	-oth
*	*	*	*	*	*Xij
!	!	!LO:TX:t=P:problem:kreska pseudotaktowa	!	!	!
2C/	.	2c\	sa-	.	.
1G	.	2d\	.	.	.
.	.	2e\	.	.	.
=26-	=26-	=26-	=26-	=26-	=26-
!LO:TX:t=P:problem:kreska pseudotaktowa	!	!	!	!LO:LB:g=original	!
1F	-oth	2.f\	.	2r	.
.	.	.	.	2.a\	Do-
!	!	!LO:SIC:v:t=custos d	!	!	!
.	.	4e\	.	.	.
!	!	!LO:LB:g=original	!	!	!
0r	.	2d\	.	.	.
.	.	.	.	4a\	-mi-
.	.	2c\	.	2a\	-nus
=27-	=27-	=27-	=27-	=27-	=27-
.	.	2.B-\	.	2b-\	De-
.	.	.	.	2g/	-us
.	.	4A/	.	.	.
2r	.	2F/	.	2a\	sab-
*	*	*	*	*lig	*
2G\	Ple-	2G/	-ba-	1b-\	.
=28-	=28-	=28-	=28-	=28-	=28-
!	!	!LO:TX:t=P:problem:kreska pseudotaktowa	!	!	!
2G\	-ni	1D	-oth	.	.
*	*	*	*Xij	*	*
2F\	Sunt	.	.	1a	.
1B-	Cae-	2.d\	sab-	.	.
*	*	*	*	*Xlig	*
.	.	.	.	2g/	-ba-
.	.	4e\	.	.	.
=29-	=29-	=29-	=29-	=29-	=29-
1A	-li	2f\	-ba-	0a	-oth
.	.	2e\	.	.	.
!LO:TX:t=P:problem:kreska pseudotaktowa	!	!LO:TX:t=P:problem:kreska pseudotaktowa	!	!	!
1D	et	1d	-oth	.	.
=30-	=30-	=30-	=30-	=30-	=30-
2.F\	ter-	1r	.	1r	.
4Eny\	.	.	.	.	.
2D/	.	2r	.	0r	.
!LO:TX:t=P:problem:kreska pseudotaktowa	!	!	!	!	!
2C/	.	2G/	Ple-	.	.
=31-	=31-	=31-	=31-	=31-	=31-
2.D/	.	2G/	-ni	.	.
.	.	2F/	ſunt	.	.
!LO:SIC:v:t=custos BB	!	!	!	!	!
4C/	.	.	.	.	.
!LO:LB:g=original	!	!	!	!	!
2BB-/	.	1B-	cae-	2r	.
2GG/	.	.	.	2g/	Ple-
=32-	=32-	=32-	=32-	=32-	=32-
!LO:TX:t=P:problem:kreska pseudotaktowa	!	!LO:TX:t=P:problem:kreska pseudotaktowa	!	!	!
1D	-ra	1A	-li	2g/	-ni
.	.	.	.	2f/	sunt
00r	.	2.G/	et	2.b-\	cae-
.	.	4A/	.	4a\	.
=33-	=33-	=33-	=33-	=33-	=33-
.	.	4B-\	.	2g/	.
!	!	!LO:SIC:v:t=custos d	!	!	!
.	.	4c\	.	.	.
!	!	!LO:LB:g=original	!	!	!
.	.	2.d\	.	2f/	.
.	.	.	.	2e/	-li
.	.	4c\	.	.	.
!	!	!	!	!LO:SIC:v:t=custos d	!
.	.	1c\	.	2f/	et
=34-	=34-	=34-	=34-	=34-	=34-
!	!	!	!	!LO:LB:g=original	!
.	.	.	.	1d	ter-
!	!	!LO:TX:t=P:problem:kreska pseudotaktowa	!	!	!
.	.	2B-\	.	.	.
2r	.	2.c\	.	1c	-ra
2F\	glo-	.	.	.	.
.	.	4B-\	.	.	.
=35-	=35-	=35-	=35-	=35-	=35-
2F\	-ri-	2A/	.	1re	.
!LO:TX:t=P:problem:kreska pseudotaktowa	!	!	!	!	!
2E\	-a	2G/	.	.	.
2.A\	tu-	1F	ter-	2re	.
.	.	.	.	2f/	glo-
4G\	.	.	.	.	.
=36-	=36-	=36-	=36-	=36-	=36-
!	!	!LO:TX:t=P:problem:kreska pseudotaktowa	!	!	!
2A\	.	1C	-ra	2f/	-ri-
2.G\	.	.	.	2e/	-a
.	.	1rA	.	2.a\	tu-
4F\	.	.	.	.	.
1F\	.	.	.	.	.
.	.	.	.	4g/	.
=37-	=37-	=37-	=37-	=37-	=37-
*	*	*	*ij	*	*
.	.	1c	et	2a\	.
2E\	.	.	.	2.g/	.
*lig	*	*	*	*	*
1F	.	2c\	ter-	.	.
.	.	.	.	4f/	.
.	.	1d\	.	1f/	.
=38-	=38-	=38-	=38-	=38-	=38-
1G	.	.	.	.	.
.	.	4c\	.	2e/	.
.	.	4B-\	.	.	.
*Xlig	*	*	*	*	*
!	!	!LO:TX:t=P:problem:kreska pseudotaktowa	!	!	!
1F	a	1c	-ra	1f	.
*	*	*	*Xij	*	*
=39-	=39-	=39-	=39-	=39-	=39-
!LO:TX:t=P:problem:kreska pseudotaktowa	!	!	!	!	!
1BB-	.	2rc	.	00f	-a
.	.	2B-\	glo-	.	.
1rD	.	2B-\	-ri-	.	.
!	!	!LO:TX:t=P:problem:kreska pseudotaktowa	!	!	!
.	.	2A/	-a	.	.
=40-	=40-	=40-	=40-	=40-	=40-
2rBB	.	2.d\	tu-	.	.
2BB-/	Ple-	.	.	.	.
.	.	4c\	.	.	.
!	!	!LO:SIC:v:t=custos c	!	!	!
2BB-/	-ni	2d\	.	.	.
!	!	!LO:LB:g=original	!	!	!
2AA/	Sunt	2.c\	.	.	.
=41-	=41-	=41-	=41-	=41-	=41-
!LO:SIC:v:t=custos C	!	!	!	!	!
1D	Cae-	.	.	2re	.
.	.	4B-\	.	.	.
.	.	2B-\	.	2f/	Glo-
!LO:LB:g=original	!	!	!	!	!
2.C/	-li	2A/	.	2f/	-ri-
!	!	!LO:TX:t=P:problem:kreska pseudotaktowa	!	!	!
.	.	2G/	-a	2e/	-a
4BB-/	et	.	.	.	.
=42-	=42-	=42-	=42-	=42-	=42-
2AA/	ter-	2r	.	2.a\	tu-
2FF/	.	2F/	glo-	.	.
!	!	!	!	!LO:SIC:v:t=custos a	!
.	.	.	.	4g/	.
!	!	!	!	!LO:LB:g=original	!
1C	.	2F/	-ri-	2a\	.
!	!	!LO:TX:t=P:problem:kreska pseudotaktowa	!	!	!
.	.	2E/	-a	2.g/	.
=43-	=43-	=43-	=43-	=43-	=43-
!LO:TX:t=P:problem:kreska pseudotaktowa	!	!	!	!	!
1FF	-ra	2.A/	tu-	.	.
.	.	.	.	4f/	.
.	.	.	.	1f	.
.	.	4G/	.	.	.
1C	glo-	2A/	.	.	.
.	.	2.G/	.	2e/	.
=44-	=44-	=44-	=44-	=44-	=44-
*	*	*	*	*lig	*
2AA/	-ri-	.	.	1f	.
.	.	4F/	.	.	.
2BB-/	-a	1F	.	.	.
1GG	tu-	.	.	1g	.
.	.	2E/	.	.	.
*	*	*	*	*Xlig	*
=45-	=45-	=45-	=45-	=45-	=45-
2FF,</	-a	1F	.	00c	a
*	*ij	*	*	*	*
!LO:TX:t=P:problem:kreska pseudotaktowa	!	!	!	!	!
2F\	glo-	.	.	.	.
!	!	!LO:TX:t=P:problem:kreska pseudotaktowa	!	!	!
2F\	-ri-	1C	-a	.	.
2E\	-a	.	.	.	.
=46-	=46-	=46-	=46-	=46-	=46-
2.A\	tu-	2rF	.	.	.
*	*	*	*ij	*	*
.	.	2F/	glo-	.	.
4G\	.	.	.	.	.
2A\	-a	2F/	-ri-	.	.
!	!	!LO:SIC:v:t=custos A	!	!	!
2.G\	glo-	2E/	-a	.	.
=47-	=47-	=47-	=47-	=47-	=47-
!	!	!LO:LB:g=original	!	!	!
.	.	2.A/	tu-	2r	.
4F\	.	.	.	.	.
!LO:TX:t=P:problem:kreska pseudotaktowa	!	!	!	!	!
2F\	-ri-	.	.	2f/	glo-
.	.	4G/	.	.	.
2C/	-a	2A/	.	2f/	-ri-
2C/	tu-	2.G/	.	2e/	-a
=48-	=48-	=48-	=48-	=48-	=48-
2AA/	.	.	.	2.a\	tu-
.	.	4F/	.	.	.
2FF/	-a	1F	.	.	.
.	.	.	.	4g/	.
!LO:LB:g=original	!	!	!	!	!
1C	glo-	.	.	2a\	.
.	.	2E/	.	2.g/	.
=49-	=49-	=49-	=49-	=49-	=49-
2.FF/	-ri-	0A	.	.	.
.	.	.	.	4f/	.
.	.	.	.	1f	.
!LO:TX:t=P:problem:kreska pseudotaktowa	!	!	!	!	!
4GG/	.	.	.	.	.
2.AA/	-a-	.	.	.	.
.	.	.	.	4e/	.
4BB-/	-tu	.	.	4d/	.
=50-	=50-	=50-	=50-	=50-	=50-
0C;;	a-	0G;<	-a	0e;;	-a
*	*Xij	*	*Xij	*	*
=51||	=51||	=51||	=51||	=51||	=51||
*M2/1	*	*M2/1	*	*M2/1	*
*met(C|)	*	*met(C|)	*	*met(C|)	*
!LO:TX:t=P:problem:przed metrum inicjał O	!	!LO:TX:t=P:problem:pod metrum inicjał O	!	!LO:TX:t=P:problem:przed kluczem inicjał O	!
!	!	!	!	!LO:LB:g=original	!
0F	O-	0c	O-	0a	O-
=52-	=52-	=52-	=52-	=52-	=52-
1G	-San-	0B-	-san-	0g	-san-
!LO:TX:t=P:problem:kreska pseudotaktowa	!	!	!	!	!
1E-X	-na	.	.	.	.
=53-	=53-	=53-	=53-	=53-	=53-
!	!	!LO:TX:t=P:problem:kreska pseudotaktowa	!	!	!
0F	in	1A	-na	1f	-na
.	.	1c	in	0a	O-
=54-	=54-	=54-	=54-	=54-	=54-
1D	ex-	1d	ex-	.	.
*lig	*	*	*	*	*
1E-X	-cel-	1B-	-cel-	0g	-san-
=55-	=55-	=55-	=55-	=55-	=55-
1C	.	1c	-sis	.	.
*Xlig	*	*	*	*	*
!LO:TX:t=P:problem:kreska pseudotaktowa	!	!	!	!	!
!LO:SIC:v:t=custos BB	!	!LO:TX:t=P:problem:kreska pseudotaktowa	!	!	!
1D	-sis	1A	O-	0f	-na
=56-	=56-	=56-	=56-	=56-	=56-
!LO:LB:g=original	!	!	!	!	!
0BB-	O-	0B-	-san-	.	.
.	.	.	.	1g	in
=57-	=57-	=57-	=57-	=57-	=57-
*	*	*	*	*lig	*
1C	-san-	1G	-na	1e	ex-
!	!	!LO:LB:g=original	!	!	!
1AA	-na	1A	in	1f	.
*	*	*	*	*Xlig	*
=58-	=58-	=58-	=58-	=58-	=58-
1BB-	in	1F	ex-	0d	-cel-
1GG	ex-	1G	-cel-	.	.
=59-	=59-	=59-	=59-	=59-	=59-
*lig	*	*	*	*	*
!	!	!LO:TX:t=P:problem:kreska pseudotaktowa	!	!	!
1AA	-cel-	1E	-sis	2c/	-sis
*	*	*	*	*	*ij
.	.	.	.	2.cc\	O-
1FF	.	2r	.	.	.
.	.	.	.	4b-\	.
.	.	2.c\	In	2a\	-san-
*Xlig	*	*	*	*	*
=60-	=60-	=60-	=60-	=60-	=60-
00C\	-ſis	.	.	2g/	-na
.	.	4B-\	.	.	.
!	!	!LO:TX:t=P:problem:kreska pseudotaktowa	!	!	!
.	.	2A/	.	2f/	in
!	!	!	!	!LO:SIC:v:t=custos a	!
.	.	2G/	ex-	2e/	ex-
!	!	!	!	!LO:PB:g=original	!
.	.	2F/	.	2a\	.
=61-	=61-	=61-	=61-	=61-	=61-
.	.	2E/	-cel-	2g/	.
.	.	2A/	.	1f	.
.	.	1G	-sis	.	.
.	.	.	.	2e/	.
=62-	=62-	=62-	=62-	=62-	=62-
!LO:TX:t=P:problem:kreska pseudotaktowa	!	!LO:TX:t=P:problem:kreska pseudotaktowa	!	!	!
1FF	.	1F	.	2.f/	-cel-
.	.	.	.	4g/	.
2rBB	.	2rF	.	1a	-sis
*	*	*	*ij	*	*Xij
2.F\	in	2.A/	In	.	.
=63-	=63-	=63-	=63-	=63-	=63-
.	.	.	.	0r	.
4Eny\	.	4G/	.	.	.
!LO:TX:t=P:problem:kreska pseudotaktowa	!	!	!	!	!
2D/	ex-	2F/	.	.	.
2C/	.	2E/	ex-	.	.
2BB-/	.	2D/	-cel-	.	.
=64-	=64-	=64-	=64-	=64-	=64-
!	!	!LO:TX:t=P:problem:kreska pseudotaktowa	!	!	!
1AA	-cel-	1E	-sis	2r	.
.	.	.	.	2.cc\	in
!	!	!LO:SIC:v:t=custos c	!	!	!
1FF	.	2r	.	.	.
.	.	.	.	4b-\	.
!	!	!LO:PB:g=original	!	!	!
.	.	2.c\	In	2a\	.
=65-	=65-	=65-	=65-	=65-	=65-
00C\	-ſis.	.	.	2g/	.
.	.	4B-\	.	.	.
.	.	2A\	.	2f/	.
.	.	2G/	ex-	2e/	ex-
!	!	!LO:TX:t=P:problem:kreska pseudotaktowa	!	!	!
.	.	2F/	.	2a\	-cel-
=66-	=66-	=66-	=66-	=66-	=66-
.	.	2E/	-cel-	2g/	.
.	.	2A/	.	1f	.
.	.	1G	.	.	.
.	.	.	.	2e/	.
=67-	=67-	=67-	=67-	=67-	=67-
0FF;	.	0F;<	-sis	0f;<	-sis
*	*	*	*Xij	*	*
=68||	=68||	=68||	=68||	=68||	=68||
*M2/1	*	*M2/1	*	*M2/1	*
*met(C|)	*	*met(C|)	*	*met(C|)	*
!LO:TX:t=P:problem:przed kluczem inicjał B	!	!LO:TX:t=P:problem:pod metrum inicjał B	!	!LO:TX:t=P:problem:przed kluczem inicjał B	!
!LO:LB:g=original	!	!	!	!LO:LB:g=original	!
00r	.	00r	.	1r	.
.	.	.	.	0cc	Be-
=69-	=69-	=69-	=69-	=69-	=69-
.	.	.	.	.	.
.	.	.	.	1b-	-ne-
=70-	=70-	=70-	=70-	=70-	=70-
00r	.	00r	.	1.a	-di-
.	.	.	.	4g/	.
.	.	.	.	4f/	.
=71-	=71-	=71-	=71-	=71-	=71-
.	.	.	.	2e/	.
.	.	.	.	2f/	-ctus
.	.	.	.	2g/	qui
.	.	.	.	4d/	ve-
.	.	.	.	4e/	.
=72-	=72-	=72-	=72-	=72-	=72-
!LO:TX:t=P:problem:kreska pseudotaktowa	!	!LO:TX:t=P:problem:kreska pseudotaktowa	!	!	!
00rF	.	1rA	.	4f/	.
.	.	.	.	4g/	.
.	.	.	.	4a\	.
.	.	.	.	4f/	.
.	.	0c	Be-	2.g/	.
.	.	.	.	4f/	.
=73-	=73-	=73-	=73-	=73-	=73-
.	.	.	.	2g/	.
.	.	.	.	1a	.
.	.	1B-	-ne-	.	.
.	.	.	.	2g/	.
=74-	=74-	=74-	=74-	=74-	=74-
0F	Be-	1.A	-di-	0a	-nit
.	.	4G/	.	.	.
.	.	4F/	.	.	.
=75-	=75-	=75-	=75-	=75-	=75-
1E	-ne-	1G	.	00r	.
!	!	!LO:TX:t=P:problem:kreska pseudotaktowa	!	!	!
1.D	-di-	1F	-ctus	.	.
=76-	=76-	=76-	=76-	=76-	=76-
.	.	0f	Be-	.	.
4C/	.	.	.	.	.
!LO:TX:t=P:problem:kreska pseudotaktowa	!	!	!	!	!
4BB-/	.	.	.	.	.
2AA/	.	.	.	.	.
2BB-/	.	.	.	.	.
=77-	=77-	=77-	=77-	=77-	=77-
1C	.	1e	-ne-	0r	.
!	!	!LO:LB:g=original	!	!LO:SIC:v:y=custos f	!
1.BB-	-ctus	1.d	-di-	.	.
=78-	=78-	=78-	=78-	=78-	=78-
!	!	!	!	!LO:LB:g=original	!
.	.	.	.	0f	Be-
!LO:TX:t=P:problem:kreska pseudotaktowa	!	!	!	!	!
2AA/	.	4c\	.	.	.
!	!	!LO:TX:t=P:problem:kreska pseudotaktowa	!	!	!
.	.	4B-\	.	.	.
1D	qui	2A/	.	.	.
.	.	2B-\	.	.	.
=79-	=79-	=79-	=79-	=79-	=79-
*lig	*	*	*	*	*
1C	Ve-	2c\	.	1e	-ne-
.	.	2G/	-ctus	.	.
1BB-	.	1B-	.	2.d/	-di-
.	.	.	.	4e/	.
*Xlig	*	*	*	*	*
=80-	=80-	=80-	=80-	=80-	=80-
!LO:TX:t=P:problem:kreska pseudotaktowa	!	!	!	!	!
1FF	-nit	2A/	qui	4f/	.
.	.	.	.	4g/	.
.	.	4F/	ve-	4a\	.
!	!	!LO:TX:t=P:problem:kreska pseudotaktowa	!	!	!
.	.	4G/	.	4b-\	.
0rBB	.	4A/	.	2cc\	ctus
.	.	4B-\	.	.	.
.	.	4c\	.	1a\	qui
.	.	4A/	.	.	.
=81-	=81-	=81-	=81-	=81-	=81-
.	.	1B-	.	.	.
.	.	.	.	2g/	ve-
!LO:TX:t=P:problem:oddech przed nutą	!	!LO:TX:t=P:problem:kreska pseudotaktowa	!	!	!
0F	Be-	1A	-nit	0a	-nit
=82-	=82-	=82-	=82-	=82-	=82-
*	*	*	*ij	*	*
.	.	0c	Be-	.	.
1E	-ne-	.	.	00r	.
=83-	=83-	=83-	=83-	=83-	=83-
!LO:PB:g=original	!	!	!	!	!
1.D	-di-	1B-	-ne-	.	.
.	.	1.A	-di-	.	.
4C/	.	.	.	.	.
4BB-/	.	.	.	.	.
=84-	=84-	=84-	=84-	=84-	=84-
2AA/	.	.	.	.	.
!LO:TX:t=P:problem:kreska pseudotaktowa	!	!	!	!	!
2BB-/	.	4G/	.	.	.
.	.	4F/	.	.	.
2C/	-ctus	2E/	.	1cc	Be-
2AA/	qui	2F/	.	.	.
=85-	=85-	=85-	=85-	=85-	=85-
!	!	!LO:SIC:v:t=custos F	!	!	!
4GG/	.	1G	.	1b-	-ne-
4AA/	.	.	.	.	.
4BB-/	.	.	.	.	.
!LO:TX:t=P:problem:kreska pseudotaktowa	!	!	!	!	!
4C/	.	.	.	.	.
!	!	!LO:LB:g=original	!	!	!
4D/	.	2.F/	-ctus	1.a	-di-
4E\	.	.	.	.	.
1F\	.	.	.	.	.
.	.	4G/	.	.	.
=86-	=86-	=86-	=86-	=86-	=86-
.	.	4A/	.	.	.
.	.	4B-\	.	.	.
4E\	.	1c	qui	4g/	.
!LO:TX:t=P:problem:kreska pseudotaktowa	!	!	!	!	!
4D\	.	.	.	4f/	.
2C/	.	.	.	2e/	-ctus
2D/	.	4B-\	.	2f/	qui
!	!	!LO:TX:t=P:problem:kreska pseudotaktowa	!	!	!
.	.	4A\	.	.	.
=87-	=87-	=87-	=87-	=87-	=87-
2E\	.	2G/	.	2g/	.
2C/	.	1c	ve-	2e/	ve-
1G	.	.	.	1d	.
.	.	2B-\	.	.	.
=88-	=88-	=88-	=88-	=88-	=88-
!LO:TX:t=P:problem:kreska pseudotaktowa	!	!LO:TX:t=P:problem:kreska pseudotaktowa	!	!LO:SIC:v:t=custos cc	!
0C	nit	1c	-nit	0e	-nit
*	*	*	*Xij	*	*
.	.	2rc	.	.	.
.	.	2c\	in	.	.
=89-	=89-	=89-	=89-	=89-	=89-
!	!	!	!	!LO:LB:g=original	!
00r	.	2c\	no-	2r	.
!	!	!LO:TX:t=P:problem:kreska pseudotaktowa	!	!	!
.	.	2c\	-mi-	2cc\	in
.	.	2.A/	-ne	2cc\	no-
.	.	.	.	2cc\	-mi-
.	.	4B-\	.	.	.
=90-	=90-	=90-	=90-	=90-	=90-
.	.	2c\	.	2.a\	-ne
!	!	!LO:TX:t=P:problem:kreska pseudotaktowa	!	!	!
.	.	2d\	.	.	.
.	.	.	.	4b-\	.
.	.	2A/	.	2cc\	.
.	.	2.d\	.	2.b-\	Do-
=91-	=91-	=91-	=91-	=91-	=91-
0r	.	.	.	.	.
.	.	4c\	.	4a\	.
!	!	!LO:TX:t=P:problem:kreska pseudotaktowa	!	!	!
.	.	2A/	.	1a	.
!LO:SIC:v:t=custos F	!	!LO:SIC:v:t=custos c	!	!	!
.	.	2B-\	Do-	.	.
!	!	!LO:LB:g=original	!	!	!
.	.	2c\	-mi-	2g/	-mi-
=92-	=92-	=92-	=92-	=92-	=92-
!LO:LB:g=original	!	!LO:TX:t=P:problem:kreska pseudotaktowa	!	!	!
2r	.	1F	-ni	0.a	-ni
2F\	in	.	.	.	.
2F\	No-	1rA	.	.	.
!LO:TX:t=P:problem:kreska pseudotaktowa	!	!	!	!	!
2F\	-mi-	.	.	.	.
=93-	=93-	=93-	=93-	=93-	=93-
2.D/	-ne	2r	.	.	.
*	*	*	*ij	*	*
.	.	2A/	in	.	.
4E\	.	.	.	.	.
2F\	.	2A/	no-	1r	.
!LO:TX:t=P:problem:kreska pseudotaktowa	!	!LO:TX:t=P:problem:kreska pseudotaktowa	!	!	!
2G\	.	2B-\	-mi-	.	.
=94-	=94-	=94-	=94-	=94-	=94-
2A\	.	2c\	-ne	2r	.
2.B-\	Do-	2.d\	.	2f/	in
.	.	.	.	2f/	no-
4A\	.	4c\	.	.	.
!LO:TX:t=P:problem:kreska pseudotaktowa	!	!	!	!	!
2F\	.	1c\	.	2f/	-mi-
=95-	=95-	=95-	=95-	=95-	=95-
1G	.	.	.	2.d/	-ne
!	!	!LO:TX:t=P:problem:kreska pseudotaktowa	!	!	!
.	.	2B-\	.	.	.
.	.	.	.	4e/	.
2F\	.	2A/	.	2f/	.
2E\	.	2G/	.	2.g/	Do-
=96-	=96-	=96-	=96-	=96-	=96-
1F	-mi-	1A	Do-	.	.
!	!	!	!	!LO:SIC:v:t=custos f	!
.	.	.	.	4f/	.
!	!	!	!	!LO:LB:g=original	!
.	.	.	.	1f/	.
!LO:TX:t=P:problem:kreska pseudotaktowa	!	!	!	!	!
1C	-ni	1G	-mi-	.	.
.	.	.	.	2e/	-mi-
=97-	=97-	=97-	=97-	=97-	=97-
!	!	!LO:TX:t=P:problem:kreska pseudotaktowa	!	!	!
2r	.	1F	-ni	2f/	-ni
*	*	*	*Xij	*	*ij
2F\	in	.	.	2.a\	Do-
2F\	No-	0rF	.	.	.
.	.	.	.	4g/	.
!LO:TX:t=P:problem:kreska pseudotaktowa	!	!	!	!	!
2F\	-mi-	.	.	1f/	.
=98-	=98-	=98-	=98-	=98-	=98-
2D/	-ne	.	.	.	.
2E\	Do-	.	.	2e/	.
2F\	.	1rA	.	2d/	.
!LO:TX:t=P:problem:kreska pseudotaktowa	!	!	!	!	!
!LO:SIC:v:t=custos A	!	!	!	!	!
2G\	.	.	.	2d/	-mi-
=99-	=99-	=99-	=99-	=99-	=99-
!LO:LB:g=original	!	!	!	!	!
2.A\	.	2r	.	1c	-ni
*	*	*	*	*	*Xij
.	.	2c\	in	.	.
4G\	.	.	.	.	.
2F\	.	2c\	no-	2re	.
2E\	-mi-	2c\	-mi-	2cc\	in
=100-	=100-	=100-	=100-	=100-	=100-
!LO:TX:t=P:problem:kreska pseudotaktowa	!	!LO:TX:t=P:problem:kreska pseudotaktowa	!	!	!
1F	-ni	1A	-ne	2cc\	no-
.	.	.	.	2cc\	-mi-
2r	.	2.F/	Do-	2.a\	-ne
2F\	in	.	.	.	.
!	!	!LO:SIC:v:t=custos A	!	!	!
.	.	4G/	.	4b-\	.
=101-	=101-	=101-	=101-	=101-	=101-
!	!	!LO:LB:g=original	!	!	!
2F\	No-	4A/	.	4cc\	.
.	.	4B-\	.	4b-\	.
!LO:TX:t=P:problem:kreska pseudotaktowa	!	!	!	!	!
2F\	-mi-	2c\	.	4a\	.
.	.	.	.	4g/	.
2D/	-ne	2d\	.	2f/	.
!LO:TX:t=P:problem:kreska pseudotaktowa	!	!	!	!	!
2E\	.	4c\	.	2.g/	Do-
.	.	4B-\	.	.	.
=102-	=102-	=102-	=102-	=102-	=102-
2F\	.	2A/	.	.	.
.	.	.	.	4f/	.
!LO:TX:t=P:problem:kreska pseudotaktowa	!	!	!	!	!
2BB-/	Do-	2B-\	.	1f	.
1C	-mi-	2G/	.	.	.
.	.	2G/	-mi-	2e/	-mi-
=103-	=103-	=103-	=103-	=103-	=103-
!LO:TX:b:t=Osanna Ut Supra	!	!LO:TX:b:t=Osanna ut supra	!	!LO:TX:b:t=Osanna ut supra	!
0FF;	-ni	0F;<	-ni	0f;;	-ni
!LO:LB:g=original	!	!LO:LB:g=original	!	!LO:PB:g=original	!
=-	=-	=-	=-	=-	=-
*-	*-	*-	*-	*-	*-
!!!system-decoration: [(s1,s2,s3)]
!!!ENC: Marta Chmielewska
!!!END: 2021-03-23
!!!RDF**kern: < = below
!!!RDF**kern: > = above
!!!ENC:Berenika Jozajtis
!!!END:2021-03-15
